src/assets/dark/clipboard.svg

<svg height="16" viewBox="0 0 16 16" width="16" xmlns="http://www.w3.org/2000/svg"><path d="m4 5v9h8v-9zm4.5 6c.27614237 0 .5.2238576.5.5s-.22385763.5-.5.5h-3c-.27614237 0-.5-.2238576-.5-.5s.22385763-.5.5-.5zm2-2c.2761424 0 .5.22385763.5.5s-.2238576.5-.5.5h-5c-.27614237 0-.5-.22385763-.5-.5s.22385763-.5.5-.5zm0-2c.2761424 0 .5.22385763.5.5s-.2238576.5-.5.5h-5c-.27614237 0-.5-.22385763-.5-.5s.22385763-.5.5-.5zm-2.49-5c-.551 0-1 .447-1 1s.459 1 1.01 1c.552 0 .99-.447.99-1s-.447-1-1-1zm-3.01 1h1.01c0-.53043.21071-1.03914.58579-1.41421.37507-.37508.88378-.58579 1.41421-.58579s1.03914.21071 1.41421.58579c.33340444.33339556.5369363.77238321.5780495 1.23835797l.0077405.17585203h.99v1h1.5l.5.5v10.0031504l-.5.4968496h-9l-.5-.4968496v-10.0031504l.5-.5h1.5z" fill="#c5c5c5"/></svg>

<?xml version="1.0" encoding="UTF-8"?>
<svg width="16px" height="16px" viewBox="0 0 16 16" version="1.1" xmlns="http://www.w3.org/2000/svg" xmlns:xlink="http://www.w3.org/1999/xlink">
    <title>Artboard</title>
    <g stroke="none" stroke-width="1" fill="none" fill-rule="evenodd">
        <path d="M4,5 L4,14 L12,14 L12,5 L4,5 Z M8.5,11 C8.77614237,11 9,11.2238576 9,11.5 C9,11.7761424 8.77614237,12 8.5,12 L5.5,12 C5.22385763,12 5,11.7761424 5,11.5 C5,11.2238576 5.22385763,11 5.5,11 L8.5,11 Z M10.5,9 C10.7761424,9 11,9.22385763 11,9.5 C11,9.77614237 10.7761424,10 10.5,10 L5.5,10 C5.22385763,10 5,9.77614237 5,9.5 C5,9.22385763 5.22385763,9 5.5,9 L10.5,9 Z M10.5,7 C10.7761424,7 11,7.22385763 11,7.5 C11,7.77614237 10.7761424,8 10.5,8 L5.5,8 C5.22385763,8 5,7.77614237 5,7.5 C5,7.22385763 5.22385763,7 5.5,7 L10.5,7 Z M8.01,2 C7.459,2 7.01,2.447 7.01,3 C7.01,3.553 7.469,4 8.02,4 C8.572,4 9.01,3.553 9.01,3 C9.01,2.447 8.563,2 8.01,2 Z M5,3 L6.01,3 C6.01,2.46957 6.22071,1.96086 6.59579,1.58579 C6.97086,1.21071 7.47957,1 8.01,1 C8.54043,1 9.04914,1.21071 9.42421,1.58579 C9.75761444,1.91918556 9.9611463,2.35817321 10.0022595,2.82414797 L10.01,3 L11,3 L11,4 L12.5,4 L13,4.5 L13,14.5031504 L12.5,15 L3.5,15 L3,14.5031504 L3,4.5 L3.5,4 L5,4 L5,3 Z" fill="#C5C5C5" fill-rule="nonzero"></path>
    </g>
</svg>
